src/xmb/flatui/Bandai - WonderSwan.svg

<?xml version="1.0" encoding="UTF-8" standalone="no"?>
<!-- Created with Inkscape (http://www.inkscape.org/) -->

<svg
   xmlns:dc="http://purl.org/dc/elements/1.1/"
   xmlns:cc="http://creativecommons.org/ns#"
   xmlns:rdf="http://www.w3.org/1999/02/22-rdf-syntax-ns#"
   xmlns:svg="http://www.w3.org/2000/svg"
   xmlns="http://www.w3.org/2000/svg"
   xmlns:sodipodi="http://sodipodi.sourceforge.net/DTD/sodipodi-0.dtd"
   xmlns:inkscape="http://www.inkscape.org/namespaces/inkscape"
   id="svg2"
   version="1.1"
   inkscape:version="0.91 r13725"
   width="64"
   height="64"
   sodipodi:docname="Bandai - WonderSwan.svg">
  <metadata
     id="metadata8">
    <rdf:RDF>
      <cc:Work
         rdf:about="">
        <dc:format>image/svg+xml</dc:format>
        <dc:type
           rdf:resource="http://purl.org/dc/dcmitype/StillImage" />
        <dc:title />
      </cc:Work>
    </rdf:RDF>
  </metadata>
  <defs
     id="defs6" />
  <sodipodi:namedview
     pagecolor="#ffffff"
     bordercolor="#666666"
     borderopacity="1"
     objecttolerance="10"
     gridtolerance="10"
     guidetolerance="10"
     inkscape:pageopacity="0"
     inkscape:pageshadow="2"
     inkscape:window-width="1440"
     inkscape:window-height="836"
     id="namedview4"
     showgrid="true"
     inkscape:zoom="11.313708"
     inkscape:cx="18.507533"
     inkscape:cy="42.429219"
     inkscape:window-x="0"
     inkscape:window-y="27"
     inkscape:window-maximized="1"
     inkscape:current-layer="svg2"
     inkscape:snap-global="true">
    <inkscape:grid
       type="xygrid"
       id="grid2987"
       empspacing="4"
       visible="true"
       enabled="true"
       snapvisiblegridlinesonly="true"
       spacingy="0.5px"
       spacingx="0.5px" />
  </sodipodi:namedview>
  <g
     inkscape:groupmode="layer"
     id="layer3"
     inkscape:label="logo"
     style="display:inline">
    <path
       style="fill:#3498ff;fill-opacity:1;stroke:none"
       d="m 3,46 c 1.2506983,2.501397 2.8109051,4.02498 5,4 10,0 12,0.5025 15,0 12,-2 17,2 33,-1 5.391985,-1.010997 6.847603,-2.797038 7,-5 L 63,19 C 62.884618,14.788082 60,15 54,14 42.971781,12.161963 40,15 33,15 26,15 21,12 13,14 9.5179434,14.645352 6,13.562302 3,17 -0.10520308,20.55825 1,42 3,46 z"
       id="path3789"
       inkscape:connector-curvature="0"
       sodipodi:nodetypes="ccccccccccc" />
    <path
       style="fill:#2c3e50;fill-opacity:1;stroke:#2c3e50;stroke-width:1px;stroke-linecap:round;stroke-linejoin:round;stroke-opacity:1"
       d="M 32.3125,18.75 C 24.870033,18.80427 19.097578,20.131189 14.9375,22.125 14.978317,22.406865 15,22.706859 15,23 c 0,3.305518 -2.686291,5.96875 -6,5.96875 -0.4705893,0 -0.9356145,-0.05405 -1.375,-0.15625 C 6.7466769,30.890258 6.8082294,33.069794 7.75,35.125 8.1499238,35.041216 8.5751047,35 9,35 c 3.313709,0 6,2.694482 6,6 0,0.175683 -0.01638,0.359411 -0.03125,0.53125 3.939402,1.811593 9.673853,2.906081 16.53125,2.96875 0.8125,-0.59375 1.34963,-0.732554 2.5,-0.743644 1.208686,-0.01165 1.747188,0.278602 2.5,0.867832 C 40.996141,44.290892 46.490135,43.285635 52,42 55.439448,39.926885 57.4429,25.247332 52,21 44.5,19.375 37.9375,18.708984 32.3125,18.75 z"
       id="path3805"
       inkscape:connector-curvature="0"
       sodipodi:nodetypes="scssccssccscccs" />
    <path
       sodipodi:type="arc"
       style="fill:#f1c40f;fill-opacity:1;stroke:none"
       id="path3838"
       sodipodi:cx="34"
       sodipodi:cy="46.226696"
       sodipodi:rx="2"
       sodipodi:ry="1.2266951"
       d="m 36,46.226696 a 2,1.2266951 0 1 1 -4,0 2,1.2266951 0 1 1 4,0 z"
       transform="matrix(1,0,0,1.0189978,0,-0.85489937)" />
    <rect
       style="fill:#ecf0f1;fill-opacity:1;stroke:none"
       id="rect3840"
       width="3.5"
       height="1.5"
       x="26.5"
       y="45.5"
       ry="0.75" />
    <rect
       style="fill:#ecf0f1;fill-opacity:1;stroke:none;display:inline"
       id="rect3840-3"
       width="3.5"
       height="1.5"
       x="21"
       y="45.5"
       ry="0.75" />
    <g
       id="g3872"
       transform="translate(-0.25,0)">
      <path
         sodipodi:nodetypes="cccc"
         inkscape:connector-curvature="0"
         id="path3862"
         d="m 7.5,19.5 c 0.3355016,-0.748399 2.673781,-1.137583 3.5,0 l -1.75,2 z"
         style="fill:#ecf0f1;fill-opacity:1;stroke:#ecf0f1;stroke-width:1px;stroke-linecap:butt;stroke-linejoin:round;stroke-opacity:1" />
    </g>
    <g
       transform="matrix(1,0,0,-1,-0.25,46)"
       style="display:inline"
       id="g3872-4">
      <path
         sodipodi:nodetypes="cccc"
         inkscape:connector-curvature="0"
         id="path3862-5"
         d="m 7.5,19.5 c 0.3355016,-0.748399 2.673781,-1.137583 3.5,0 l -1.75,2 z"
         style="fill:#ecf0f1;fill-opacity:1;stroke:#ecf0f1;stroke-width:1px;stroke-linecap:butt;stroke-linejoin:round;stroke-opacity:1" />
    </g>
    <g
       transform="matrix(0,-1,1,0,-14,32.25)"
       style="display:inline"
       id="g3872-2">
      <path
         sodipodi:nodetypes="cccc"
         inkscape:connector-curvature="0"
         id="path3862-8"
         d="m 7.5,19.5 c 0.3355016,-0.748399 2.673781,-1.137583 3.5,0 l -1.75,2 z"
         style="fill:#ecf0f1;fill-opacity:1;stroke:#ecf0f1;stroke-width:1px;stroke-linecap:butt;stroke-linejoin:round;stroke-opacity:1" />
    </g>
    <g
       transform="matrix(0,1,-1,0,32,13.75)"
       style="display:inline"
       id="g3872-45">
      <path
         sodipodi:nodetypes="cccc"
         inkscape:connector-curvature="0"
         id="path3862-4"
         d="m 7.5,19.5 c 0.3355016,-0.748399 2.673781,-1.137583 3.5,0 l -1.75,2 z"
         style="fill:#ecf0f1;fill-opacity:1;stroke:#ecf0f1;stroke-width:1px;stroke-linecap:butt;stroke-linejoin:round;stroke-opacity:1" />
    </g>
    <g
       style="display:inline"
       id="g3872-9"
       transform="translate(-0.25,18)">
      <path
         sodipodi:nodetypes="cccc"
         inkscape:connector-curvature="0"
         id="path3862-7"
         d="m 7.5,19.5 c 0.3355016,-0.748399 2.673781,-1.137583 3.5,0 l -1.75,2 z"
         style="fill:#ecf0f1;fill-opacity:1;stroke:#ecf0f1;stroke-width:1px;stroke-linecap:butt;stroke-linejoin:round;stroke-opacity:1" />
    </g>
    <g
       transform="matrix(1,0,0,-1,-0.25,64)"
       style="display:inline"
       id="g3872-4-3">
      <path
         sodipodi:nodetypes="cccc"
         inkscape:connector-curvature="0"
         id="path3862-5-0"
         d="m 7.5,19.5 c 0.3355016,-0.748399 2.673781,-1.137583 3.5,0 l -1.75,2 z"
         style="fill:#ecf0f1;fill-opacity:1;stroke:#ecf0f1;stroke-width:1px;stroke-linecap:butt;stroke-linejoin:round;stroke-opacity:1" />
    </g>
    <g
       transform="matrix(0,-1,1,0,-14,50.25)"
       style="display:inline"
       id="g3872-2-7">
      <path
         sodipodi:nodetypes="cccc"
         inkscape:connector-curvature="0"
         id="path3862-8-6"
         d="m 7.5,19.5 c 0.3355016,-0.748399 2.673781,-1.137583 3.5,0 l -1.75,2 z"
         style="fill:#ecf0f1;fill-opacity:1;stroke:#ecf0f1;stroke-width:1px;stroke-linecap:butt;stroke-linejoin:round;stroke-opacity:1" />
    </g>
    <g
       transform="matrix(0,1,-1,0,32,31.75)"
       style="display:inline"
       id="g3872-45-7">
      <path
         sodipodi:nodetypes="cccc"
         inkscape:connector-curvature="0"
         id="path3862-4-0"
         d="m 7.5,19.5 c 0.3355016,-0.748399 2.673781,-1.137583 3.5,0 l -1.75,2 z"
         style="fill:#ecf0f1;fill-opacity:1;stroke:#ecf0f1;stroke-width:1px;stroke-linecap:butt;stroke-linejoin:round;stroke-opacity:1" />
    </g>
    <g
       transform="matrix(1,0,0,-1,46.75,63)"
       style="display:inline"
       id="g3872-4-1">
      <path
         sodipodi:nodetypes="cccc"
         inkscape:connector-curvature="0"
         id="path3862-5-9"
         d="m 7.5,19.5 c 0.3355016,-0.748399 2.673781,-1.137583 3.5,0 l -1.75,2 z"
         style="fill:#ecf0f1;fill-opacity:1;stroke:#ecf0f1;stroke-width:1px;stroke-linecap:butt;stroke-linejoin:round;stroke-opacity:1" />
    </g>
    <g
       transform="matrix(0,1,-1,0,79,30.75)"
       style="display:inline"
       id="g3872-45-73">
      <path
         sodipodi:nodetypes="cccc"
         inkscape:connector-curvature="0"
         id="path3862-4-9"
         d="m 7.5,19.5 c 0.3355016,-0.748399 2.673781,-1.137583 3.5,0 l -1.75,2 z"
         style="fill:#ecf0f1;fill-opacity:1;stroke:#ecf0f1;stroke-width:1px;stroke-linecap:butt;stroke-linejoin:round;stroke-opacity:1" />
    </g>
    <rect
       style="fill:#2980b9;fill-opacity:1;stroke:none"
       id="rect3975"
       width="8"
       height="0.5"
       x="55"
       y="19.5"
       ry="0.24911912" />
    <rect
       style="fill:#2980b9;fill-opacity:1;stroke:none"
       id="rect3977"
       width="5.5"
       height="0.5"
       x="57.5"
       y="19.5"
       ry="0" />
    <rect
       style="fill:#2980b9;fill-opacity:1;stroke:none;display:inline"
       id="rect3975-9"
       width="7.5"
       height="0.5"
       x="55.5"
       y="20.5"
       ry="0.234375" />
    <rect
       style="fill:#2980b9;fill-opacity:1;stroke:none;display:inline"
       id="rect3977-1"
       width="5.5"
       height="0.5"
       x="57.5"
       y="20.5"
       ry="0" />
    <rect
       style="fill:#2980b9;fill-opacity:1;stroke:none;display:inline"
       id="rect3975-2"
       width="7"
       height="0.5"
       x="56"
       y="21.5"
       ry="0.1953125" />
    <rect
       style="fill:#2980b9;fill-opacity:1;stroke:none;display:inline"
       id="rect3977-4"
       width="5.5"
       height="0.5"
       x="57.5"
       y="21.5"
       ry="0" />
    <rect
       style="fill:#2980b9;fill-opacity:1;stroke:none;display:inline"
       id="rect3975-0"
       width="6.5"
       height="0.5"
       x="56.5"
       y="22.5"
       ry="0.24911912" />
    <rect
       style="fill:#2980b9;fill-opacity:1;stroke:none;display:inline"
       id="rect3977-9"
       width="5.5"
       height="0.5"
       x="57.5"
       y="22.5"
       ry="0" />
    <rect
       style="fill:#2980b9;fill-opacity:1;stroke:none;display:inline"
       id="rect3975-93"
       width="6"
       height="0.5"
       x="57"
       y="23.5"
       ry="0.24911912" />
    <rect
       style="fill:#2980b9;fill-opacity:1;stroke:none;display:inline"
       id="rect3977-8"
       width="5.5"
       height="0.5"
       x="57.5"
       y="23.5"
       ry="0" />
    <rect
       style="fill:#7f8c8d;fill-opacity:1;stroke:none"
       id="rect4048"
       width="28"
       height="18"
       x="20"
       y="22.5"
       ry="0" />
    <rect
       style="fill:#7f8c8d;fill-opacity:1;stroke:none"
       id="rect4050"
       width="0.5"
       height="17.999998"
       x="48.5"
       y="22.5" />
  </g>
</svg>

<svg xmlns="http://www.w3.org/2000/svg" width="64" height="64"><g style="display:inline"><path d="M3 46c1.25 2.501 2.81 4.025 5 4 10 0 12 .502 15 0 12-2 17 2 33-1 5.392-1.011 6.848-2.797 7-5V19c-.115-4.212-3-4-9-5-11.028-1.838-14 1-21 1s-12-3-20-1c-3.482.645-7-.438-10 3-3.105 3.558-2 25 0 29" style="fill:#3498ff;fill-opacity:1;stroke:none"/><path d="M32.313 18.75c-7.443.054-13.215 1.381-17.376 3.375.041.282.063.582.063.875 0 3.306-2.686 5.969-6 5.969a6 6 0 0 1-1.375-.157c-.878 2.078-.817 4.258.125 6.313.4-.084.825-.125 1.25-.125 3.314 0 6 2.694 6 6 0 .176-.016.36-.031.531 3.94 1.812 9.674 2.906 16.531 2.969.813-.594 1.35-.733 2.5-.744 1.209-.011 1.747.279 2.5.868 4.496-.333 9.99-1.338 15.5-2.624 3.44-2.073 5.443-16.753 0-21-7.5-1.625-14.062-2.291-19.687-2.25" style="fill:#2c3e50;fill-opacity:1;stroke:#2c3e50;stroke-width:1px;stroke-linecap:round;stroke-linejoin:round;stroke-opacity:1"/><path d="M36 46.227a2 1.227 0 1 1-4 0 2 1.227 0 1 1 4 0" style="fill:#f1c40f;fill-opacity:1;stroke:none" transform="matrix(1 0 0 1.019 0 -.855)"/><rect width="3.5" height="1.5" x="26.5" y="45.5" ry=".75" style="fill:#ecf0f1;fill-opacity:1;stroke:none"/><rect width="3.5" height="1.5" x="21" y="45.5" ry=".75" style="fill:#ecf0f1;fill-opacity:1;stroke:none;display:inline"/><path d="M7.5 19.5c.336-.748 2.674-1.138 3.5 0l-1.75 2z" style="fill:#ecf0f1;fill-opacity:1;stroke:#ecf0f1;stroke-width:1px;stroke-linecap:butt;stroke-linejoin:round;stroke-opacity:1" transform="translate(-.25)"/><g style="display:inline"><path d="M7.5 19.5c.336-.748 2.674-1.138 3.5 0l-1.75 2z" style="fill:#ecf0f1;fill-opacity:1;stroke:#ecf0f1;stroke-width:1px;stroke-linecap:butt;stroke-linejoin:round;stroke-opacity:1" transform="matrix(1 0 0 -1 -.25 46)"/></g><g style="display:inline"><path d="M7.5 19.5c.336-.748 2.674-1.138 3.5 0l-1.75 2z" style="fill:#ecf0f1;fill-opacity:1;stroke:#ecf0f1;stroke-width:1px;stroke-linecap:butt;stroke-linejoin:round;stroke-opacity:1" transform="rotate(-90 9.125 23.125)"/></g><g style="display:inline"><path d="M7.5 19.5c.336-.748 2.674-1.138 3.5 0l-1.75 2z" style="fill:#ecf0f1;fill-opacity:1;stroke:#ecf0f1;stroke-width:1px;stroke-linecap:butt;stroke-linejoin:round;stroke-opacity:1" transform="rotate(90 9.125 22.875)"/></g><g style="display:inline"><path d="M7.5 19.5c.336-.748 2.674-1.138 3.5 0l-1.75 2z" style="fill:#ecf0f1;fill-opacity:1;stroke:#ecf0f1;stroke-width:1px;stroke-linecap:butt;stroke-linejoin:round;stroke-opacity:1" transform="translate(-.25 18)"/></g><g style="display:inline"><path d="M7.5 19.5c.336-.748 2.674-1.138 3.5 0l-1.75 2z" style="fill:#ecf0f1;fill-opacity:1;stroke:#ecf0f1;stroke-width:1px;stroke-linecap:butt;stroke-linejoin:round;stroke-opacity:1" transform="matrix(1 0 0 -1 -.25 64)"/></g><g style="display:inline"><path d="M7.5 19.5c.336-.748 2.674-1.138 3.5 0l-1.75 2z" style="fill:#ecf0f1;fill-opacity:1;stroke:#ecf0f1;stroke-width:1px;stroke-linecap:butt;stroke-linejoin:round;stroke-opacity:1" transform="rotate(-90 18.125 32.125)"/></g><g style="display:inline"><path d="M7.5 19.5c.336-.748 2.674-1.138 3.5 0l-1.75 2z" style="fill:#ecf0f1;fill-opacity:1;stroke:#ecf0f1;stroke-width:1px;stroke-linecap:butt;stroke-linejoin:round;stroke-opacity:1" transform="rotate(90 .125 31.875)"/></g><g style="display:inline"><path d="M7.5 19.5c.336-.748 2.674-1.138 3.5 0l-1.75 2z" style="fill:#ecf0f1;fill-opacity:1;stroke:#ecf0f1;stroke-width:1px;stroke-linecap:butt;stroke-linejoin:round;stroke-opacity:1" transform="matrix(1 0 0 -1 46.75 63)"/></g><g style="display:inline"><path d="M7.5 19.5c.336-.748 2.674-1.138 3.5 0l-1.75 2z" style="fill:#ecf0f1;fill-opacity:1;stroke:#ecf0f1;stroke-width:1px;stroke-linecap:butt;stroke-linejoin:round;stroke-opacity:1" transform="rotate(90 24.125 54.875)"/></g><rect width="8" height=".5" x="55" y="19.5" ry=".249" style="fill:#2980b9;fill-opacity:1;stroke:none"/><rect width="5.5" height=".5" x="57.5" y="19.5" ry="0" style="fill:#2980b9;fill-opacity:1;stroke:none"/><rect width="7.5" height=".5" x="55.5" y="20.5" ry=".234" style="fill:#2980b9;fill-opacity:1;stroke:none;display:inline"/><rect width="5.5" height=".5" x="57.5" y="20.5" ry="0" style="fill:#2980b9;fill-opacity:1;stroke:none;display:inline"/><rect width="7" height=".5" x="56" y="21.5" ry=".195" style="fill:#2980b9;fill-opacity:1;stroke:none;display:inline"/><rect width="5.5" height=".5" x="57.5" y="21.5" ry="0" style="fill:#2980b9;fill-opacity:1;stroke:none;display:inline"/><rect width="6.5" height=".5" x="56.5" y="22.5" ry=".249" style="fill:#2980b9;fill-opacity:1;stroke:none;display:inline"/><rect width="5.5" height=".5" x="57.5" y="22.5" ry="0" style="fill:#2980b9;fill-opacity:1;stroke:none;display:inline"/><rect width="6" height=".5" x="57" y="23.5" ry=".249" style="fill:#2980b9;fill-opacity:1;stroke:none;display:inline"/><rect width="5.5" height=".5" x="57.5" y="23.5" ry="0" style="fill:#2980b9;fill-opacity:1;stroke:none;display:inline"/><rect width="28" height="18" x="20" y="22.5" ry="0" style="fill:#7f8c8d;fill-opacity:1;stroke:none"/><path d="M48.5 22.5h.5v18h-.5z" style="fill:#7f8c8d;fill-opacity:1;stroke:none"/></g></svg>
